[A]
T3@1V15,5
L3O4DD6DD6DD6DD6
L3R7O4DD5DF+6DR7
L3R7O4DD5DF+6AR7
L3O4BF+6O5C+O4A6BF+6O5C+O4A6
L3R7O4BB5BB6BR7
L3R7O4BB5BB6BR7

[B]
T3S0N2
@7V13,8L7O3BA+AG+
@0V16L5M5XX@7V13,8L3R7O4C+6O3AR7
@0V16L5M5XX@7V13,8L3R7O4C+6F+R7
@7V13,8L7O4F+AF+A
@0V16L5M5XX@7V13,8L3R7O4G+6F+R7
@0V16L5M5XX@7V13,8L3R7O4G+6G+R7

[C]
T3@7V13,8
L7O3F+F+FE
L3R7R7O3A6F+R7
L3R7R7O3A6O4C+R7
L7O4DF+DF+
L3R7R7O4E6D+R7
L3R7R7O4E6ER7

